Origami/64x64/apps/xt7-player-mpv.svg

<svg xmlns="http://www.w3.org/2000/svg" width="64" height="64" version="1">
 <path style="opacity:0.2" d="M 32,5 C 16.536028,5 4,17.536028 4,33 4,48.463972 16.536028,61 32,61 47.463972,61 60,48.463972 60,33 60,17.536028 47.463972,5 32,5 Z"/>
 <path style="fill:#4f4f4f" d="M 32,4 C 16.536028,4 4,16.536028 4,32 4,47.463972 16.536028,60 32,60 47.463972,60 60,47.463972 60,32 60,16.536028 47.463972,4 32,4 Z"/>
 <path style="opacity:0.2" d="M 32,13 A 20,20 0 0 0 12,33 20,20 0 0 0 32,53 20,20 0 0 0 52,33 20,20 0 0 0 32,13 Z m -6,10 8,5 8,5 -8,5 -8,5 z"/>
 <path style="fill:#ffffff" d="M 32,12 A 20,20 0 0 0 12,32 20,20 0 0 0 32,52 20,20 0 0 0 52,32 20,20 0 0 0 32,12 Z m -6,10 8,5 8,5 -8,5 -8,5 z"/>
 <path style="opacity:0.1;fill:#ffffff" d="M 32 4 C 16.536028 4 4 16.536028 4 32 C 4 32.113406 4.0112926 32.224106 4.0175781 32.335938 C 4.3713878 17.179663 16.758667 5 32 5 C 47.241333 5 59.628612 17.179663 59.982422 32.335938 C 59.988707 32.224106 60 32.113406 60 32 C 60 16.536028 47.463972 4 32 4 z"/>
</svg>

<svg width="64" height="64" version="1" xmlns="http://www.w3.org/2000/svg">
 <path d="m32 5c-15.463972 0-28 12.536028-28 28s12.536028 28 28 28 28-12.536028 28-28-12.536028-28-28-28z" style="opacity:.2"/>
 <path d="m32 4c-15.463972 0-28 12.536028-28 28s12.536028 28 28 28 28-12.536028 28-28-12.536028-28-28-28z" style="fill:#4f4f4f"/>
 <path d="m32 13a20 20 0 0 0 -20 20 20 20 0 0 0 20 20 20 20 0 0 0 20 -20 20 20 0 0 0 -20 -20zm-6 10 8 5 8 5-8 5-8 5z" style="opacity:.2"/>
 <path d="m32 12a20 20 0 0 0 -20 20 20 20 0 0 0 20 20 20 20 0 0 0 20 -20 20 20 0 0 0 -20 -20zm-6 10 8 5 8 5-8 5-8 5z" style="fill:#ffffff"/>
 <path d="M 32 4 C 16.536028 4 4 16.536028 4 32 C 4 32.113406 4.0112926 32.224106 4.0175781 32.335938 C 4.3713878 17.179663 16.758667 5 32 5 C 47.241333 5 59.628612 17.179663 59.982422 32.335938 C 59.988707 32.224106 60 32.113406 60 32 C 60 16.536028 47.463972 4 32 4 z" style="fill:#ffffff;opacity:.1"/>
</svg>
